lightroom-presets/Nosara Coastal/03 Jungle Interior.xmp
<x:xmpmeta xmlns:x="adobe:ns:meta/" x:xmptk="Adobe XMP Core 6.0">
 <rdf:RDF xmlns:rdf="http://www.w3.org/1999/02/22-rdf-syntax-ns#">
  <rdf:Description rdf:about=""
    xmlns:crs="http://ns.adobe.com/camera-raw-settings/1.0/"
    crs:PresetType="Normal"
    crs:Cluster=""
    crs:UUID="A1DE9AE054ABBF0798B5EB9A03FFD1F8"
    crs:SupportsAmount="False"
    crs:SupportsColor="True"
    crs:SupportsMonochrome="True"
    crs:SupportsHighDynamicRange="True"
    crs:SupportsNormalDynamicRange="True"
    crs:SupportsSceneReferred="True"
    crs:SupportsOutputReferred="True"
    crs:CameraModelRestriction=""
    crs:Copyright="Julián Monge — shop.julianmonge.com"
    crs:ContactInfo="shop.julianmonge.com"
    crs:Version="15.4"
    crs:ProcessVersion="11.0"
    crs:Exposure2012="0.00"
    crs:Contrast2012="+14"
    crs:Highlights2012="-28"
    crs:Shadows2012="+30"
    crs:Whites2012="+4"
    crs:Blacks2012="-12"
    crs:Texture="+10"
    crs:Clarity2012="+8"
    crs:Dehaze="+8"
    crs:Vibrance="+10"
    crs:Saturation="-2"
    crs:ToneCurveName2012="Custom"
    crs:ConvertToGrayscale="False"
    crs:HueAdjustmentRed="0"
    crs:HueAdjustmentOrange="0"
    crs:HueAdjustmentYellow="+6"
    crs:HueAdjustmentGreen="+10"
    crs:HueAdjustmentAqua="+8"
    crs:HueAdjustmentBlue="0"
    crs:HueAdjustmentPurple="0"
    crs:HueAdjustmentMagenta="0"
    crs:SaturationAdjustmentRed="0"
    crs:SaturationAdjustmentOrange="0"
    crs:SaturationAdjustmentYellow="+4"
    crs:SaturationAdjustmentGreen="+6"
    crs:SaturationAdjustmentAqua="0"
    crs:SaturationAdjustmentBlue="0"
    crs:SaturationAdjustmentPurple="0"
    crs:SaturationAdjustmentMagenta="0"
    crs:LuminanceAdjustmentRed="0"
    crs:LuminanceAdjustmentOrange="0"
    crs:LuminanceAdjustmentYellow="+6"
    crs:LuminanceAdjustmentGreen="+6"
    crs:LuminanceAdjustmentAqua="0"
    crs:LuminanceAdjustmentBlue="0"
    crs:LuminanceAdjustmentPurple="0"
    crs:LuminanceAdjustmentMagenta="0"
    crs:ColorGradeShadowHue="160"
    crs:ColorGradeShadowSat="14"
    crs:ColorGradeShadowLum="0"
    crs:ColorGradeMidtoneHue="120"
    crs:ColorGradeMidtoneSat="6"
    crs:ColorGradeMidtoneLum="0"
    crs:ColorGradeHighlightHue="50"
    crs:ColorGradeHighlightSat="8"
    crs:ColorGradeHighlightLum="0"
    crs:ColorGradeGlobalHue="0"
    crs:ColorGradeGlobalSat="0"
    crs:ColorGradeGlobalLum="0"
    crs:ColorGradeBlending="50"
    crs:SplitToningBalance="-10"
    crs:Sharpness="40"
    crs:SharpenRadius="+1.0"
    crs:SharpenDetail="25"
    crs:SharpenEdgeMasking="0"
    crs:LuminanceSmoothing="0"
    crs:ColorNoiseReduction="25"
    crs:ColorNoiseReductionDetail="50"
    crs:ColorNoiseReductionSmoothness="50"
    crs:GrainAmount="12"
    crs:GrainSize="22"
    crs:GrainFrequency="50"
    crs:PostCropVignetteAmount="-10"
    crs:PostCropVignetteMidpoint="50"
    crs:PostCropVignetteFeather="60"
    crs:PostCropVignetteRoundness="0"
    crs:PostCropVignetteStyle="1"
    crs:PostCropVignetteHighlightContrast="0"
    crs:HasSettings="True">
   <crs:Name>
    <rdf:Alt>
     <rdf:li xml:lang="x-default">03 · Jungle Interior</rdf:li>
    </rdf:Alt>
   </crs:Name>
   <crs:ShortName>
    <rdf:Alt>
     <rdf:li xml:lang="x-default">03 · Jungle Interior</rdf:li>
    </rdf:Alt>
   </crs:ShortName>
   <crs:Group>
    <rdf:Alt>
     <rdf:li xml:lang="x-default">Nosara Coastal</rdf:li>
    </rdf:Alt>
   </crs:Group>
   <crs:ToneCurvePV2012>
    <rdf:Seq>
      <rdf:li>0, 6</rdf:li>
      <rdf:li>64, 50</rdf:li>
      <rdf:li>128, 128</rdf:li>
      <rdf:li>192, 200</rdf:li>
      <rdf:li>255, 250</rdf:li>
    </rdf:Seq>
   </crs:ToneCurvePV2012>
  </rdf:Description>
 </rdf:RDF>
</x:xmpmeta>
