lightroom-presets/Nosara Coastal/06 Sunset Glow.xmp
<x:xmpmeta xmlns:x="adobe:ns:meta/" x:xmptk="Adobe XMP Core 6.0">
 <rdf:RDF xmlns:rdf="http://www.w3.org/1999/02/22-rdf-syntax-ns#">
  <rdf:Description rdf:about=""
    xmlns:crs="http://ns.adobe.com/camera-raw-settings/1.0/"
    crs:PresetType="Normal"
    crs:Cluster=""
    crs:UUID="8624E6CAE2D6D5A73787C1B5B91646FF"
    crs:SupportsAmount="False"
    crs:SupportsColor="True"
    crs:SupportsMonochrome="True"
    crs:SupportsHighDynamicRange="True"
    crs:SupportsNormalDynamicRange="True"
    crs:SupportsSceneReferred="True"
    crs:SupportsOutputReferred="True"
    crs:CameraModelRestriction=""
    crs:Copyright="Julián Monge — shop.julianmonge.com"
    crs:ContactInfo="shop.julianmonge.com"
    crs:Version="15.4"
    crs:ProcessVersion="11.0"
    crs:Exposure2012="0.00"
    crs:Contrast2012="+20"
    crs:Highlights2012="-30"
    crs:Shadows2012="+22"
    crs:Whites2012="+8"
    crs:Blacks2012="-16"
    crs:Texture="+8"
    crs:Clarity2012="+8"
    crs:Dehaze="+8"
    crs:Vibrance="+14"
    crs:Saturation="-4"
    crs:ToneCurveName2012="Custom"
    crs:ConvertToGrayscale="False"
    crs:HueAdjustmentRed="-4"
    crs:HueAdjustmentOrange="-4"
    crs:HueAdjustmentYellow="0"
    crs:HueAdjustmentGreen="0"
    crs:HueAdjustmentAqua="0"
    crs:HueAdjustmentBlue="0"
    crs:HueAdjustmentPurple="0"
    crs:HueAdjustmentMagenta="0"
    crs:SaturationAdjustmentRed="+6"
    crs:SaturationAdjustmentOrange="+8"
    crs:SaturationAdjustmentYellow="0"
    crs:SaturationAdjustmentGreen="0"
    crs:SaturationAdjustmentAqua="-4"
    crs:SaturationAdjustmentBlue="0"
    crs:SaturationAdjustmentPurple="0"
    crs:SaturationAdjustmentMagenta="0"
    crs:LuminanceAdjustmentRed="0"
    crs:LuminanceAdjustmentOrange="0"
    crs:LuminanceAdjustmentYellow="0"
    crs:LuminanceAdjustmentGreen="0"
    crs:LuminanceAdjustmentAqua="-6"
    crs:LuminanceAdjustmentBlue="-6"
    crs:LuminanceAdjustmentPurple="0"
    crs:LuminanceAdjustmentMagenta="0"
    crs:ColorGradeShadowHue="205"
    crs:ColorGradeShadowSat="18"
    crs:ColorGradeShadowLum="0"
    crs:ColorGradeMidtoneHue="30"
    crs:ColorGradeMidtoneSat="6"
    crs:ColorGradeMidtoneLum="0"
    crs:ColorGradeHighlightHue="35"
    crs:ColorGradeHighlightSat="22"
    crs:ColorGradeHighlightLum="0"
    crs:ColorGradeGlobalHue="0"
    crs:ColorGradeGlobalSat="0"
    crs:ColorGradeGlobalLum="0"
    crs:ColorGradeBlending="60"
    crs:SplitToningBalance="+15"
    crs:Sharpness="40"
    crs:SharpenRadius="+1.0"
    crs:SharpenDetail="25"
    crs:SharpenEdgeMasking="0"
    crs:LuminanceSmoothing="0"
    crs:ColorNoiseReduction="25"
    crs:ColorNoiseReductionDetail="50"
    crs:ColorNoiseReductionSmoothness="50"
    crs:GrainAmount="14"
    crs:GrainSize="22"
    crs:GrainFrequency="50"
    crs:PostCropVignetteAmount="-12"
    crs:PostCropVignetteMidpoint="50"
    crs:PostCropVignetteFeather="60"
    crs:PostCropVignetteRoundness="0"
    crs:PostCropVignetteStyle="1"
    crs:PostCropVignetteHighlightContrast="0"
    crs:HasSettings="True">
   <crs:Name>
    <rdf:Alt>
     <rdf:li xml:lang="x-default">06 · Sunset Glow</rdf:li>
    </rdf:Alt>
   </crs:Name>
   <crs:ShortName>
    <rdf:Alt>
     <rdf:li xml:lang="x-default">06 · Sunset Glow</rdf:li>
    </rdf:Alt>
   </crs:ShortName>
   <crs:Group>
    <rdf:Alt>
     <rdf:li xml:lang="x-default">Nosara Coastal</rdf:li>
    </rdf:Alt>
   </crs:Group>
   <crs:ToneCurvePV2012>
    <rdf:Seq>
      <rdf:li>0, 12</rdf:li>
      <rdf:li>64, 56</rdf:li>
      <rdf:li>128, 128</rdf:li>
      <rdf:li>192, 198</rdf:li>
      <rdf:li>255, 246</rdf:li>
    </rdf:Seq>
   </crs:ToneCurvePV2012>
  </rdf:Description>
 </rdf:RDF>
</x:xmpmeta>
