lightroom-presets/Nosara Coastal/07 Matte Film.xmp
<x:xmpmeta xmlns:x="adobe:ns:meta/" x:xmptk="Adobe XMP Core 6.0">
 <rdf:RDF xmlns:rdf="http://www.w3.org/1999/02/22-rdf-syntax-ns#">
  <rdf:Description rdf:about=""
    xmlns:crs="http://ns.adobe.com/camera-raw-settings/1.0/"
    crs:PresetType="Normal"
    crs:Cluster=""
    crs:UUID="86E81019BB27C51BBEA4DEF5CBD092BA"
    crs:SupportsAmount="False"
    crs:SupportsColor="True"
    crs:SupportsMonochrome="True"
    crs:SupportsHighDynamicRange="True"
    crs:SupportsNormalDynamicRange="True"
    crs:SupportsSceneReferred="True"
    crs:SupportsOutputReferred="True"
    crs:CameraModelRestriction=""
    crs:Copyright="Julián Monge — shop.julianmonge.com"
    crs:ContactInfo="shop.julianmonge.com"
    crs:Version="15.4"
    crs:ProcessVersion="11.0"
    crs:Exposure2012="0.00"
    crs:Contrast2012="-6"
    crs:Highlights2012="-14"
    crs:Shadows2012="+10"
    crs:Whites2012="-6"
    crs:Blacks2012="+14"
    crs:Texture="-4"
    crs:Clarity2012="-6"
    crs:Dehaze="0"
    crs:Vibrance="+6"
    crs:Saturation="-12"
    crs:ToneCurveName2012="Custom"
    crs:ConvertToGrayscale="False"
    crs:HueAdjustmentRed="0"
    crs:HueAdjustmentOrange="0"
    crs:HueAdjustmentYellow="0"
    crs:HueAdjustmentGreen="+6"
    crs:HueAdjustmentAqua="0"
    crs:HueAdjustmentBlue="0"
    crs:HueAdjustmentPurple="0"
    crs:HueAdjustmentMagenta="0"
    crs:SaturationAdjustmentRed="-6"
    crs:SaturationAdjustmentOrange="-4"
    crs:SaturationAdjustmentYellow="0"
    crs:SaturationAdjustmentGreen="0"
    crs:SaturationAdjustmentAqua="0"
    crs:SaturationAdjustmentBlue="-8"
    crs:SaturationAdjustmentPurple="0"
    crs:SaturationAdjustmentMagenta="0"
    crs:LuminanceAdjustmentRed="0"
    crs:LuminanceAdjustmentOrange="0"
    crs:LuminanceAdjustmentYellow="0"
    crs:LuminanceAdjustmentGreen="0"
    crs:LuminanceAdjustmentAqua="0"
    crs:LuminanceAdjustmentBlue="0"
    crs:LuminanceAdjustmentPurple="0"
    crs:LuminanceAdjustmentMagenta="0"
    crs:ColorGradeShadowHue="130"
    crs:ColorGradeShadowSat="10"
    crs:ColorGradeShadowLum="0"
    crs:ColorGradeMidtoneHue="0"
    crs:ColorGradeMidtoneSat="0"
    crs:ColorGradeMidtoneLum="0"
    crs:ColorGradeHighlightHue="50"
    crs:ColorGradeHighlightSat="10"
    crs:ColorGradeHighlightLum="0"
    crs:ColorGradeGlobalHue="0"
    crs:ColorGradeGlobalSat="0"
    crs:ColorGradeGlobalLum="0"
    crs:ColorGradeBlending="50"
    crs:SplitToningBalance="0"
    crs:Sharpness="40"
    crs:SharpenRadius="+1.0"
    crs:SharpenDetail="25"
    crs:SharpenEdgeMasking="0"
    crs:LuminanceSmoothing="0"
    crs:ColorNoiseReduction="25"
    crs:ColorNoiseReductionDetail="50"
    crs:ColorNoiseReductionSmoothness="50"
    crs:GrainAmount="18"
    crs:GrainSize="22"
    crs:GrainFrequency="50"
    crs:PostCropVignetteAmount="-6"
    crs:PostCropVignetteMidpoint="50"
    crs:PostCropVignetteFeather="60"
    crs:PostCropVignetteRoundness="0"
    crs:PostCropVignetteStyle="1"
    crs:PostCropVignetteHighlightContrast="0"
    crs:HasSettings="True">
   <crs:Name>
    <rdf:Alt>
     <rdf:li xml:lang="x-default">07 · Matte Film</rdf:li>
    </rdf:Alt>
   </crs:Name>
   <crs:ShortName>
    <rdf:Alt>
     <rdf:li xml:lang="x-default">07 · Matte Film</rdf:li>
    </rdf:Alt>
   </crs:ShortName>
   <crs:Group>
    <rdf:Alt>
     <rdf:li xml:lang="x-default">Nosara Coastal</rdf:li>
    </rdf:Alt>
   </crs:Group>
   <crs:ToneCurvePV2012>
    <rdf:Seq>
      <rdf:li>0, 24</rdf:li>
      <rdf:li>64, 62</rdf:li>
      <rdf:li>128, 126</rdf:li>
      <rdf:li>192, 188</rdf:li>
      <rdf:li>255, 232</rdf:li>
    </rdf:Seq>
   </crs:ToneCurvePV2012>
   <crs:ToneCurvePV2012Red>
    <rdf:Seq>
      <rdf:li>0, 8</rdf:li>
      <rdf:li>255, 248</rdf:li>
    </rdf:Seq>
   </crs:ToneCurvePV2012Red>
   <crs:ToneCurvePV2012Blue>
    <rdf:Seq>
      <rdf:li>0, 28</rdf:li>
      <rdf:li>128, 128</rdf:li>
      <rdf:li>255, 232</rdf:li>
    </rdf:Seq>
   </crs:ToneCurvePV2012Blue>
  </rdf:Description>
 </rdf:RDF>
</x:xmpmeta>
