lightroom-presets/Nosara Coastal/10 Deep Teal.xmp
<x:xmpmeta xmlns:x="adobe:ns:meta/" x:xmptk="Adobe XMP Core 6.0">
 <rdf:RDF xmlns:rdf="http://www.w3.org/1999/02/22-rdf-syntax-ns#">
  <rdf:Description rdf:about=""
    xmlns:crs="http://ns.adobe.com/camera-raw-settings/1.0/"
    crs:PresetType="Normal"
    crs:Cluster=""
    crs:UUID="414A98EBF75A5DB12B64C8D9A46EE96B"
    crs:SupportsAmount="False"
    crs:SupportsColor="True"
    crs:SupportsMonochrome="True"
    crs:SupportsHighDynamicRange="True"
    crs:SupportsNormalDynamicRange="True"
    crs:SupportsSceneReferred="True"
    crs:SupportsOutputReferred="True"
    crs:CameraModelRestriction=""
    crs:Copyright="Julián Monge — shop.julianmonge.com"
    crs:ContactInfo="shop.julianmonge.com"
    crs:Version="15.4"
    crs:ProcessVersion="11.0"
    crs:Exposure2012="0.00"
    crs:Contrast2012="+14"
    crs:Highlights2012="-34"
    crs:Shadows2012="+18"
    crs:Whites2012="-4"
    crs:Blacks2012="-14"
    crs:Texture="+6"
    crs:Clarity2012="+6"
    crs:Dehaze="+6"
    crs:Vibrance="+6"
    crs:Saturation="-10"
    crs:ToneCurveName2012="Custom"
    crs:ConvertToGrayscale="False"
    crs:HueAdjustmentRed="0"
    crs:HueAdjustmentOrange="0"
    crs:HueAdjustmentYellow="0"
    crs:HueAdjustmentGreen="0"
    crs:HueAdjustmentAqua="-8"
    crs:HueAdjustmentBlue="0"
    crs:HueAdjustmentPurple="0"
    crs:HueAdjustmentMagenta="0"
    crs:SaturationAdjustmentRed="0"
    crs:SaturationAdjustmentOrange="-4"
    crs:SaturationAdjustmentYellow="0"
    crs:SaturationAdjustmentGreen="0"
    crs:SaturationAdjustmentAqua="+6"
    crs:SaturationAdjustmentBlue="-6"
    crs:SaturationAdjustmentPurple="0"
    crs:SaturationAdjustmentMagenta="0"
    crs:LuminanceAdjustmentRed="0"
    crs:LuminanceAdjustmentOrange="0"
    crs:LuminanceAdjustmentYellow="0"
    crs:LuminanceAdjustmentGreen="0"
    crs:LuminanceAdjustmentAqua="0"
    crs:LuminanceAdjustmentBlue="-8"
    crs:LuminanceAdjustmentPurple="0"
    crs:LuminanceAdjustmentMagenta="0"
    crs:ColorGradeShadowHue="195"
    crs:ColorGradeShadowSat="22"
    crs:ColorGradeShadowLum="-4"
    crs:ColorGradeMidtoneHue="195"
    crs:ColorGradeMidtoneSat="8"
    crs:ColorGradeMidtoneLum="0"
    crs:ColorGradeHighlightHue="50"
    crs:ColorGradeHighlightSat="6"
    crs:ColorGradeHighlightLum="0"
    crs:ColorGradeGlobalHue="0"
    crs:ColorGradeGlobalSat="0"
    crs:ColorGradeGlobalLum="0"
    crs:ColorGradeBlending="55"
    crs:SplitToningBalance="-5"
    crs:Sharpness="40"
    crs:SharpenRadius="+1.0"
    crs:SharpenDetail="25"
    crs:SharpenEdgeMasking="0"
    crs:LuminanceSmoothing="0"
    crs:ColorNoiseReduction="25"
    crs:ColorNoiseReductionDetail="50"
    crs:ColorNoiseReductionSmoothness="50"
    crs:GrainAmount="14"
    crs:GrainSize="22"
    crs:GrainFrequency="50"
    crs:PostCropVignetteAmount="-14"
    crs:PostCropVignetteMidpoint="50"
    crs:PostCropVignetteFeather="60"
    crs:PostCropVignetteRoundness="0"
    crs:PostCropVignetteStyle="1"
    crs:PostCropVignetteHighlightContrast="0"
    crs:HasSettings="True">
   <crs:Name>
    <rdf:Alt>
     <rdf:li xml:lang="x-default">10 · Deep Teal</rdf:li>
    </rdf:Alt>
   </crs:Name>
   <crs:ShortName>
    <rdf:Alt>
     <rdf:li xml:lang="x-default">10 · Deep Teal</rdf:li>
    </rdf:Alt>
   </crs:ShortName>
   <crs:Group>
    <rdf:Alt>
     <rdf:li xml:lang="x-default">Nosara Coastal</rdf:li>
    </rdf:Alt>
   </crs:Group>
   <crs:ToneCurvePV2012>
    <rdf:Seq>
      <rdf:li>0, 10</rdf:li>
      <rdf:li>64, 54</rdf:li>
      <rdf:li>128, 124</rdf:li>
      <rdf:li>192, 192</rdf:li>
      <rdf:li>255, 244</rdf:li>
    </rdf:Seq>
   </crs:ToneCurvePV2012>
  </rdf:Description>
 </rdf:RDF>
</x:xmpmeta>
